X: 44
T: Pollonesse #44
M: 3/4
L: 1/16
K: D
Q:120
|a2af g2ge f2fa|gfge d2A2 F2A2| a2af g2ge f2fa gfge  d4D4 :|
|:D2D2 F2F2 A2A2| d3f edcB A4| FAFA GBGB FAFA| A,EA,E A,EA,E A,4:|

